X:840
T: Fun at the Fair
S: B.Breathnach:"Ceol Rince na hEireann" IV/52 (gan ainm)
Z: B.Black
L: 1/8
M: 12/8
Q: 360
R: jig
K: G
G3 AGF G2d g2d|G2B G2B AFD DEF|
G3 AGF G2d g3|faf g2e f2d A2F|
G3 AGF G2d g2d|G2B G2B AFD DEF|
G3 AGF G2d g3|faf gfe d2e f2g ||
K: D
a2f d2f aba a2f|a2f d2f ecA A2f|
a2f d2f a2f b2g|faf gfe d2e f2g|
a2f d2f aba a2f|a2f d2f ecA A2g|
faf g2e a2f b2g|faf g2e f2d A2F ||
